public/avatar/shoe/149.svg

<svg xmlns:xlink="http://www.w3.org/1999/xlink" height="38.3" width="36.05" xmlns="http://www.w3.org/2000/svg"><use height="18.05" transform="translate(11.55 10.1)" width="21.1" xlink:href="#a"/><defs><g id="a"><path d="M.4-4.75q5 .3 6.45.95 1.1.4 1.6 1.8l.3 1.55.1 1.15L6.6 1h-.1q.9 1.75.9 5.2 0 2.05-.9 2.55L4.25 10.3q-2.05 1.8-4.4 2.45l-6.75.55q-3.7-.25-4.85-1.1-.5-.5-.5-1.2 0-1.3 1.25-3.15 1.6-2.3 5.65-5.8l.05-1.2L-7.35.5l-.9-.45 1.7-4.5.5-.1 6.45-.2" fill="#1a171b" fill-rule="evenodd" transform="translate(12.25 4.75)"/><path d="m.4-3.7 6.05.8q.75.4 1 1.25l.25 1.2v.25L5.1 0l.4 1.25q1.7 5.85.4 6.6L4.25 9Q1 11.3-.4 11.75l-6.5.45q-3.35-.2-4.15-.9-.75-.35.95-2.85l5.45-5.5.35-.35.15-2.8H-5.3l-1.6-.25q.85-2 1.15-3.1L.4-3.7" fill="#d9c288" fill-rule="evenodd" transform="translate(12.25 4.75)"/><path d="M-.4 11.75q-1.15.3.35-2.7 1.8-3.8 1.65-4.95-.25-1.35-3.1-1.55l-2.8.05.15-2.8L.1.35 4 .3l1.35 3 .3 4.75-1.4.95Q1 11.3-.4 11.75" fill="#b69a65" fill-rule="evenodd" transform="translate(12.25 4.75)"/><path d="M5.45 1q-7 .5-9.6-.2v-1l5.5.4L5.1 0l.35 1" fill="#533a2d" fill-rule="evenodd" transform="translate(12.25 4.75)"/><path d="m-10.1 10.1.5-1.3q.8-1.45 2.7-2.1l4-.1q1.65.7.3 1.95-4.7 4.05-7.5 1.55M-6.5-.7l1-2.5q.85-1 6.35.05Q2.5-2.9-2.1-1.3q-1.45 1.05-4.4.6m11.9-2q1.85-.25 1.7 1.65l-.4.6q-.35.05-.7-.5l-.8-1.1q-.45-.6.2-.65" fill="#ffe3ae" fill-rule="evenodd" transform="translate(12.25 4.75)"/><path d="m7.6 7.8 1.6-.25q1.95-.05 3.3.8m-6.25.85 1.7-.25q1.95-.1 3.3.8M5 11l1.65-.25q1.95-.15 3.3.75" fill="none" stroke="#533a2d" stroke-linecap="round" stroke-linejoin="round" stroke-width=".5"/></g></defs></svg>

<?xml version="1.0" encoding="UTF-8" standalone="no"?>
<svg xmlns:xlink="http://www.w3.org/1999/xlink" height="38.3px" width="36.05px" xmlns="http://www.w3.org/2000/svg">
  <g transform="matrix(1.0, 0.0, 0.0, 1.0, 23.8, 14.85)">
    <use height="18.05" transform="matrix(1.0, 0.0, 0.0, 1.0, -12.25, -4.75)" width="21.1" xlink:href="#shape0"/>
  </g>
  <defs>
    <g id="shape0" transform="matrix(1.0, 0.0, 0.0, 1.0, 12.25, 4.75)">
      <path d="M0.4 -4.75 Q5.4 -4.45 6.85 -3.8 7.95 -3.4 8.45 -2.0 L8.75 -0.45 8.85 0.7 6.6 1.0 6.5 1.0 Q7.4 2.75 7.4 6.2 7.4 8.25 6.5 8.75 L4.25 10.3 Q2.2 12.1 -0.15 12.75 L-6.9 13.3 Q-10.6 13.05 -11.75 12.2 -12.25 11.7 -12.25 11.0 -12.25 9.7 -11.0 7.85 -9.4 5.55 -5.35 2.05 L-5.3 0.85 -7.35 0.5 -8.25 0.05 -6.55 -4.45 -6.05 -4.55 0.4 -4.75" fill="#1a171b" fill-rule="evenodd" stroke="none"/>
      <path d="M0.4 -3.7 L6.45 -2.9 Q7.2 -2.5 7.45 -1.65 L7.7 -0.45 7.7 -0.2 5.1 0.0 5.5 1.25 Q7.2 7.1 5.9 7.85 L4.25 9.0 Q1.0 11.3 -0.4 11.75 L-6.9 12.2 Q-10.25 12.0 -11.05 11.3 -11.8 10.95 -10.1 8.45 L-4.65 2.95 -4.3 2.6 -4.15 -0.2 -5.3 -0.2 -6.9 -0.45 Q-6.05 -2.45 -5.75 -3.55 L0.4 -3.7" fill="#d9c288" fill-rule="evenodd" stroke="none"/>
      <path d="M-0.4 11.75 Q-1.55 12.05 -0.05 9.05 1.75 5.25 1.6 4.1 1.35 2.75 -1.5 2.55 L-4.3 2.6 -4.15 -0.2 0.1 0.35 4.0 0.3 5.35 3.3 5.65 8.05 4.25 9.0 Q1.0 11.3 -0.4 11.75" fill="#b69a65" fill-rule="evenodd" stroke="none"/>
      <path d="M5.45 1.0 Q-1.55 1.5 -4.15 0.8 L-4.15 -0.2 1.35 0.2 5.1 0.0 5.45 1.0" fill="#533a2d" fill-rule="evenodd" stroke="none"/>
      <path d="M-10.1 10.1 L-9.6 8.8 Q-8.8 7.35 -6.9 6.7 L-2.9 6.6 Q-1.25 7.3 -2.6 8.55 -7.3 12.6 -10.1 10.1" fill="#ffe3ae" fill-rule="evenodd" stroke="none"/>
      <path d="M-6.5 -0.7 L-5.5 -3.2 Q-4.65 -4.2 0.85 -3.15 2.5 -2.9 -2.1 -1.3 -3.55 -0.25 -6.5 -0.7" fill="#ffe3ae" fill-rule="evenodd" stroke="none"/>
      <path d="M5.4 -2.7 Q7.25 -2.95 7.1 -1.05 L6.7 -0.45 Q6.35 -0.4 6.0 -0.95 L5.2 -2.05 Q4.75 -2.65 5.4 -2.7" fill="#ffe3ae" fill-rule="evenodd" stroke="none"/>
      <path d="M-4.65 3.05 L-3.05 2.8 Q-1.1 2.75 0.25 3.6" fill="none" stroke="#533a2d" stroke-linecap="round" stroke-linejoin="round" stroke-width="0.5"/>
      <path d="M-6.0 4.45 L-4.3 4.2 Q-2.35 4.1 -1.0 5.0" fill="none" stroke="#533a2d" stroke-linecap="round" stroke-linejoin="round" stroke-width="0.5"/>
      <path d="M-7.25 6.25 L-5.6 6.0 Q-3.65 5.85 -2.3 6.75" fill="none" stroke="#533a2d" stroke-linecap="round" stroke-linejoin="round" stroke-width="0.5"/>
    </g>
  </defs>
</svg>
